src/icons/linux-linear.svg

<svg fill="none" height="26" viewBox="0 0 22 26" width="22" xmlns="http://www.w3.org/2000/svg"><path d="m14.0414 4.63636c0-1.45454-1.0909-3.63636-3.6363-3.63636-.61511 0-1.90648.36415-2.8182 1.70841-.16628.24517-.31993.52294-.45455.83704-.45419 1.0598-.42111 2.49308.11079 3.76991m6.79826-2.679c0 .9697.1455 3.12728.7273 4 .2481.37212.75 1.12502 1.3182 2.01334m-2.0455-6.01334c0 .64657-.2947 1.80957-1.0712 2.86364m5.7985 9.8636c.1212-.1212.2909-.6545 0-1.8181-.2396-.9584-1.5843-3.1798-2.6818-4.8958m2.6818 6.7139.3875.8944m-.3875-.8944c-.7687 1.1364-2.9808 1.0455-3.7687.1364-.4124-.4758.3281-.8281 1-1.5 1.2675-1.2675.5869-4.0366.0869-5.3503m-2.4091 12.1685c-.2424.1212-.3636.6545 1.0909 1.8182 1.2604 1.0083 4.0679-1.005 5.8202-2.5856.4101-.3699.4087-1.0037.0182-1.3943l-.9442-.9441c-.1098-.1098-.1925-.2436-.2416-.3909l-.2651-1.0635m-5.4784 4.5602h-4.72726m4.72726 0 1.9619-3.9238c.224-.4479.7388-.6543 1.2011-.5047.0957.0309.1757.095.2445.1683.2482.2645.6368.3425.9678.1942l1.1031-.4942m-10.20566 4.5602c-.12121.7273-.72728 2.1818-2.18182 2.1818-1.18473 0-3.57566-.965-5.20789-1.7159-.52918-.2435-.718036-.8924-.41834-1.3919l.27225-.4538c.16521-.2753.18814-.6132.06165-.9084l-.30233-.7054c-.277955-.6486.19778-1.3701.9034-1.3701.17492 0 .71913-.0466 1.00146-.1342.09746-.0302.17007-.1045.22951-.1875l.5512-.7692m5.09091 5.4546-1.7074-2.2882-1.74314-2.03m-1.64037-1.1364c-.24243-.9697-.50909-3.2727.36363-4.7272.3652-.6087.85273-1.35 1.36364-2.0774m-1.72727 6.8046 1.64037 1.1364m2.0869-10.5c.3027.50823.99167.8425 1.83571 1.21121.42879.18731.91619.23074 1.34589.04538.7525-.32467 1.3506-.78191 1.8184-1.29099.1391-.15133.2666-.30723.3833-.4656m-5.3833.5c-.53472.56393-1.28994 1.54805-2 2.559m2-2.559c-.13147-.22074-.24604-.45005-.34376-.68464m-1.65624 3.24364c-.21212 1.4803-.27273 4.641 1.18182 5.441 1.45454.8 3.0303.6667 3.63638.5-.63638.9524-2.17783 2.5429-4.9051 2m5.5-13.5.5-.36364m-4.25686 2.679c1.7074 0 2.11328-.81536 2.84376-.81536.7305 0 1.9131 1 2.8833 1m-4.01966-2.86364.55995.36364m.07641-.5c0 .82843-.44771 1-1 1-.55228 0-1-.17157-1-1s.44772-1.5 1-1.5c.55229 0 1 .67157 1 1.5zm3 0c0 .82843-.4477 1-1 1s-1-.17157-1-1 .4477-1.5 1-1.5 1 .67157 1 1.5z"/></svg>

<svg width="22" height="26" viewBox="0 0 22 26" fill="none" xmlns="http://www.w3.org/2000/svg">
<path d="M14.0414 4.63636C14.0414 3.18182 12.9505 1 10.4051 1C9.78999 1 8.49862 1.36415 7.5869 2.70841C7.42062 2.95358 7.26697 3.23135 7.13235 3.54545C6.67816 4.60525 6.71124 6.03853 7.24314 7.31536M14.0414 4.63636C14.0414 5.60606 14.1869 7.76364 14.7687 8.63636C15.0168 9.00848 15.5187 9.76138 16.0869 10.6497M14.0414 4.63636C14.0414 5.28293 13.7467 6.44593 12.9702 7.5M18.7687 17.3636C18.8899 17.2424 19.0596 16.7091 18.7687 15.5455C18.5291 14.5871 17.1844 12.3657 16.0869 10.6497M18.7687 17.3636L19.1562 18.258M18.7687 17.3636C18 18.5 15.7879 18.4091 15 17.5C14.5876 17.0242 15.3281 16.6719 16 16C17.2675 14.7325 16.5869 11.9634 16.0869 10.6497M13.6778 22.8182C13.4354 22.9394 13.3142 23.4727 14.7687 24.6364C16.0291 25.6447 18.8366 23.6314 20.5889 22.0508C20.999 21.6809 20.9976 21.0471 20.6071 20.6565L19.6629 19.7124C19.5531 19.6026 19.4704 19.4688 19.4213 19.3215L19.1562 18.258M13.6778 22.8182H8.95054M13.6778 22.8182L15.6397 18.8944C15.8637 18.4465 16.3785 18.2401 16.8408 18.3897C16.9365 18.4206 17.0165 18.4847 17.0853 18.558V18.558C17.3335 18.8225 17.7221 18.9005 18.0531 18.7522L19.1562 18.258M8.95054 22.8182C8.82933 23.5455 8.22326 25 6.76872 25C5.58399 25 3.19306 24.035 1.56083 23.2841C1.03165 23.0406 0.842794 22.3917 1.14249 21.8922L1.41474 21.4384C1.57995 21.1631 1.60288 20.8252 1.47639 20.53L1.17406 19.8246C0.896105 19.176 1.37184 18.4545 2.07746 18.4545C2.25238 18.4545 2.79659 18.4079 3.07892 18.3203C3.17638 18.2901 3.24899 18.2158 3.30843 18.1328L3.85963 17.3636M8.95054 22.8182L7.24314 20.53L5.5 18.5M3.85963 17.3636C3.6172 16.3939 3.35054 14.0909 4.22326 12.6364C4.58846 12.0277 5.07599 11.2864 5.5869 10.559M3.85963 17.3636L5.5 18.5M7.5869 8C7.8896 8.50823 8.57857 8.8425 9.42261 9.21121C9.8514 9.39852 10.3388 9.44195 10.7685 9.25659C11.521 8.93192 12.1191 8.47468 12.5869 7.9656C12.726 7.81427 12.8535 7.65837 12.9702 7.5M7.5869 8C7.05218 8.56393 6.29696 9.54805 5.5869 10.559M7.5869 8C7.45543 7.77926 7.34086 7.54995 7.24314 7.31536M5.5869 10.559C5.37478 12.0393 5.31417 15.2 6.76872 16C8.22326 16.8 9.79902 16.6667 10.4051 16.5C9.76872 17.4524 8.22727 19.0429 5.5 18.5M11 5L11.5 4.63636M7.24314 7.31536C8.95054 7.31536 9.35642 6.5 10.0869 6.5C10.8174 6.5 12 7.5 12.9702 7.5M8.95054 4.63636L9.51049 5M9.5869 4.5C9.5869 5.32843 9.13919 5.5 8.5869 5.5C8.03462 5.5 7.5869 5.32843 7.5869 4.5C7.5869 3.67157 8.03462 3 8.5869 3C9.13919 3 9.5869 3.67157 9.5869 4.5ZM12.5869 4.5C12.5869 5.32843 12.1392 5.5 11.5869 5.5C11.0346 5.5 10.5869 5.32843 10.5869 4.5C10.5869 3.67157 11.0346 3 11.5869 3C12.1392 3 12.5869 3.67157 12.5869 4.5Z"/>
</svg>
